static/img/kroki/0b46453efced5385f84e7b4feb200204.svg

<?xml version="1.0" encoding="us-ascii" standalone="no"?><svg xmlns="http://www.w3.org/2000/svg" xmlns:xlink="http://www.w3.org/1999/xlink" contentStyleType="text/css" height="252px" preserveAspectRatio="none" style="width:275px;height:252px;" version="1.1" viewBox="0 0 275 252" width="275px" zoomAndPan="magnify"><defs/><g><!--class azure_cosmos_db_account--><g id="elem_azure_cosmos_db_account"><rect codeLine="23" fill="#3D176E" height="39.7891" id="azure_cosmos_db_account" rx="2.5" ry="2.5" style="stroke:#000D19;stroke-width:0.5;" width="261" x="7" y="206.58"/><ellipse cx="22" cy="226.4745" fill="#ADD1B2" rx="11" ry="11" style="stroke:#181818;stroke-width:1.0;"/><path d="M24.9688,232.1152 Q24.3906,232.412 23.75,232.5527 Q23.1094,232.7089 22.4063,232.7089 Q19.9063,232.7089 18.5781,231.0683 Q17.2656,229.412 17.2656,226.287 Q17.2656,223.162 18.5781,221.5058 Q19.9063,219.8495 22.4063,219.8495 Q23.1094,219.8495 23.75,220.0058 Q24.4063,220.162 24.9688,220.4589 L24.9688,223.1777 Q24.3438,222.5995 23.75,222.3339 Q23.1563,222.0527 22.5313,222.0527 Q21.1875,222.0527 20.5,223.1308 Q19.8125,224.1933 19.8125,226.287 Q19.8125,228.3808 20.5,229.4589 Q21.1875,230.5214 22.5313,230.5214 Q23.1563,230.5214 23.75,230.2558 Q24.3438,229.9745 24.9688,229.3964 L24.9688,232.1152 Z " fill="#000000"/><text fill="#D9B8FF" font-family="Helvetica" font-size="17" lengthAdjust="spacing" textLength="219" x="41" y="232.3598">azure_cosmos_db_account</text></g><!--class azure_key_vault--><g id="elem_azure_key_vault"><rect codeLine="26" fill="#3D176E" height="39.7891" id="azure_key_vault" rx="2.5" ry="2.5" style="stroke:#000D19;stroke-width:0.5;" width="179" x="48" y="7"/><ellipse cx="63" cy="26.8945" fill="#ADD1B2" rx="11" ry="11" style="stroke:#181818;stroke-width:1.0;"/><path d="M65.9688,32.5352 Q65.3906,32.832 64.75,32.9727 Q64.1094,33.1289 63.4063,33.1289 Q60.9063,33.1289 59.5781,31.4883 Q58.2656,29.832 58.2656,26.707 Q58.2656,23.582 59.5781,21.9258 Q60.9063,20.2695 63.4063,20.2695 Q64.1094,20.2695 64.75,20.4258 Q65.4063,20.582 65.9688,20.8789 L65.9688,23.5977 Q65.3438,23.0195 64.75,22.7539 Q64.1563,22.4727 63.5313,22.4727 Q62.1875,22.4727 61.5,23.5508 Q60.8125,24.6133 60.8125,26.707 Q60.8125,28.8008 61.5,29.8789 Q62.1875,30.9414 63.5313,30.9414 Q64.1563,30.9414 64.75,30.6758 Q65.3438,30.3945 65.9688,29.8164 L65.9688,32.5352 Z " fill="#000000"/><text fill="#D9B8FF" font-family="Helvetica" font-size="17" lengthAdjust="spacing" textLength="137" x="82" y="32.7798">azure_key_vault</text></g><!--class azure_key_vault_key--><g id="elem_azure_key_vault_key"><rect codeLine="29" fill="#3D176E" height="39.7891" id="azure_key_vault_key" rx="2.5" ry="2.5" style="stroke:#000D19;stroke-width:0.5;" width="218" x="28.5" y="106.79"/><ellipse cx="43.5" cy="126.6845" fill="#ADD1B2" rx="11" ry="11" style="stroke:#181818;stroke-width:1.0;"/><path d="M46.4688,132.3252 Q45.8906,132.622 45.25,132.7627 Q44.6094,132.9189 43.9063,132.9189 Q41.4063,132.9189 40.0781,131.2783 Q38.7656,129.622 38.7656,126.497 Q38.7656,123.372 40.0781,121.7158 Q41.4063,120.0595 43.9063,120.0595 Q44.6094,120.0595 45.25,120.2158 Q45.9063,120.372 46.4688,120.6689 L46.4688,123.3877 Q45.8438,122.8095 45.25,122.5439 Q44.6563,122.2627 44.0313,122.2627 Q42.6875,122.2627 42,123.3408 Q41.3125,124.4033 41.3125,126.497 Q41.3125,128.5908 42,129.6689 Q42.6875,130.7314 44.0313,130.7314 Q44.6563,130.7314 45.25,130.4658 Q45.8438,130.1845 46.4688,129.6064 L46.4688,132.3252 Z " fill="#000000"/><text fill="#D9B8FF" font-family="Helvetica" font-size="17" lengthAdjust="spacing" textLength="176" x="62.5" y="132.5698">azure_key_vault_key</text></g><!--link azure_key_vault to azure_key_vault_key--><g id="link_azure_key_vault_azure_key_vault_key"><path codeLine="32" d="M137.5,47.22 C137.5,64.36 137.5,83.27 137.5,100.41 " fill="none" id="azure_key_vault-to-azure_key_vault_key" style="stroke:#1A83AF;stroke-width:2.0;"/><polygon fill="#1A83AF" points="137.5,106.41,141.5,97.41,137.5,101.41,133.5,97.41,137.5,106.41" style="stroke:#1A83AF;stroke-width:2.0;"/></g><!--link azure_key_vault_key to azure_cosmos_db_account--><g id="link_azure_key_vault_key_azure_cosmos_db_account"><path codeLine="33" d="M137.5,147.01 C137.5,164.15 137.5,183.06 137.5,200.2 " fill="none" id="azure_key_vault_key-to-azure_cosmos_db_account" style="stroke:#1A83AF;stroke-width:2.0;"/><polygon fill="#1A83AF" points="137.5,206.2,141.5,197.2,137.5,201.2,133.5,197.2,137.5,206.2" style="stroke:#1A83AF;stroke-width:2.0;"/></g><!--SRC=[XP1HQy8m4CVV-oa2VHRiPDE-3AeWsukCkRSnoZMvQ6YRo2LLTEoxpwxRY6sjRo7_tztzxhPA8CDovuwin393ie7DbTu1GSaI8dDOcC8G2wK4EPcsmwNHxYQmWXBP4nPxT8f3ctZRAfvhj9RTUT4SUBuXKsdHj7S4sfuZrCwZ5WLOcpX7AgiSUZ8YpcPIjibsqt0Yeka3TZ130kaN6O_78ehRoCrHWtl_4sjrGXRvHriPXntDpeWVQj2o9Zp9pg9_-LN75n12wGsxz_vU6oVII1V_woq8SwXf2ONrnrY7XCOTTxZeR8NnJCXfB_ny3GvuVJe6fuemvSQMngOYIu7pC-lOPn1yNI0v7jCzLCLGLB-Qk5qpUW-ZP3P9bX-ZnxwgeAzJJr57DFW6]--></g></svg>

<svg xmlns="http://www.w3.org/2000/svg" width="275" height="252" viewBox="0 0 275 252"><rect width="261" height="39.789" x="7" y="206.58" fill="#3D176E" rx="2.5" ry="2.5" style="stroke:#000d19;stroke-width:.5"/><circle cx="22" cy="226.475" r="11" fill="#ADD1B2" style="stroke:#181818;stroke-width:1"/><path d="M24.969 232.115q-.578.297-1.219.438-.64.156-1.344.156-2.5 0-3.828-1.64-1.312-1.657-1.312-4.782t1.312-4.781q1.328-1.656 3.828-1.656.703 0 1.344.156.656.156 1.219.453v2.719q-.625-.578-1.219-.844-.594-.281-1.219-.281-1.343 0-2.031 1.078-.687 1.062-.687 3.156t.687 3.172q.688 1.062 2.031 1.062.625 0 1.219-.265.594-.281 1.219-.86z"/><text x="41" y="232.36" fill="#D9B8FF" font-family="Helvetica" font-size="17" textLength="219">azure_cosmos_db_account</text><rect width="179" height="39.789" x="48" y="7" fill="#3D176E" rx="2.5" ry="2.5" style="stroke:#000d19;stroke-width:.5"/><circle cx="63" cy="26.895" r="11" fill="#ADD1B2" style="stroke:#181818;stroke-width:1"/><path d="M65.969 32.535q-.578.297-1.219.438-.64.156-1.344.156-2.5 0-3.828-1.64-1.312-1.657-1.312-4.782t1.312-4.781q1.328-1.656 3.828-1.656.703 0 1.344.156.656.156 1.219.453v2.719q-.625-.578-1.219-.844-.594-.281-1.219-.281-1.343 0-2.031 1.078-.687 1.062-.687 3.156t.687 3.172q.688 1.062 2.031 1.062.625 0 1.219-.265.594-.281 1.219-.86z"/><text x="82" y="32.78" fill="#D9B8FF" font-family="Helvetica" font-size="17" textLength="137">azure_key_vault</text><rect width="218" height="39.789" x="28.5" y="106.79" fill="#3D176E" rx="2.5" ry="2.5" style="stroke:#000d19;stroke-width:.5"/><circle cx="43.5" cy="126.684" r="11" fill="#ADD1B2" style="stroke:#181818;stroke-width:1"/><path d="M46.469 132.325q-.578.297-1.219.438-.64.156-1.344.156-2.5 0-3.828-1.64-1.312-1.657-1.312-4.782t1.312-4.781q1.328-1.656 3.828-1.656.703 0 1.344.156.656.156 1.219.453v2.719q-.625-.579-1.219-.844-.594-.281-1.219-.281-1.343 0-2.031 1.078-.687 1.062-.687 3.156t.687 3.172q.688 1.062 2.031 1.062.625 0 1.219-.265.594-.281 1.219-.86z"/><text x="62.5" y="132.57" fill="#D9B8FF" font-family="Helvetica" font-size="17" textLength="176">azure_key_vault_key</text><path fill="none" d="M137.5 47.22v53.19" style="stroke:#1a83af;stroke-width:2"/><path fill="#1A83AF" d="m137.5 106.41 4-9-4 4-4-4z" style="stroke:#1a83af;stroke-width:2"/><path fill="none" d="M137.5 147.01v53.19" style="stroke:#1a83af;stroke-width:2"/><path fill="#1A83AF" d="m137.5 206.2 4-9-4 4-4-4z" style="stroke:#1a83af;stroke-width:2"/></svg>
